battery-arrow-down.svg

<svg fill="currentColor" viewBox="0 0 24 24"><path d="M13.54 22H7.33C6.6 22 6 21.4 6 20.67V5.33C6 4.6 6.6 4 7.33 4H9V2h6v2h1.67C17.4 4 18 4.6 18 5.33V12c-3.31 0-6 2.69-6 6 0 1.54.58 2.94 1.54 4m1.4-3.5 3 3 3-3h-2v-4h-2v4z"/></svg>

<svg  viewBox="0 0 24 24" fill="currentColor"><path  d="M13.54 22H7.33C6.6 22 6 21.4 6 20.67V5.33C6 4.6 6.6 4 7.33 4H9V2H15V4H16.67C17.4 4 18 4.6 18 5.33V12C14.69 12 12 14.69 12 18C12 19.54 12.58 20.94 13.54 22M14.94 18.5L17.94 21.5L20.94 18.5H18.94V14.5H16.94V18.5H14.94"/></svg>
